X:1
T:Ellingham (Wesley), 10.10.10.10
T:Ellingham (Wesley), 10.10.10.10
T:Samuel Sebastian Wesley, 1864
T:Public Domain Courtesy of the Cyber Hymnal™
C:Samuel Sebastian Wesley, 1864
Z:Public Domain
Z:Courtesy of the Cyber Hymnal™
%%score ( 1 2 ) ( 3 4 )
L:1/8
Q:1/4=117
M:none
K:F
V:1 treble 
V:2 treble 
V:3 bass 
V:4 bass 
V:1
 [FA]4 [FA]2 [EG]2 | F4 F4 | [FG]2 [FA]2 [FB]2 [Gc]2 | [FA]4 [Ec]4 | [Ff]4 [Fe]4 | [Fd]4 [Fc]4 | %6
 [Ec]2 [EB]2 [FA]2 [GB]2 | [EG]6 [EG]2 | [Fc]4 (A2 G2) | [EG]4 F4 | [Fd]2 [Fc]2 [EB]2 [FA]2 | %11
 [EG]8 | F4 [EB]2 [FA]2 | [DG]2 [CE]2 F2 [FB]2 | [FA]4 [EG]4 | F8 |] %16
V:2
 x8 | F4 F4 | x8 | x8 | x8 | x8 | x8 | x8 | x4 E4 | x4 F4 | x8 | x8 | F4 x4 | x4 F2 x2 | x8 | F8 |] %16
V:3
 [F,C]4 [C,C]2 [B,,C]2 | [A,,C]4 [D,A,]4 | [B,,D]2 [C,C]2 [D,B,]2 [E,G,]2 | [F,C]4 G,4 | %4
 [A,,C]4 [A,C]4 | B,4 [A,C]4 | [G,C]2 [G,C]2 [F,C]2 [B,,D]2 | [C,C]6 [C,C]2 | [A,,C]4 (C2 B,2) | %9
 [D,B,]4 [D,A,]4 | B,2 [A,C]2 [G,C]2 [F,C]2 | [C,C]8 | [A,C]4 [G,C]2 [F,C]2 | %13
 [B,,B,]2 [C,B,]2 [D,A,]2 [B,,D]2 | [C,C]4 (C2 B,2) | [F,A,]8 |] %16
V:4
 x8 | x8 | x8 | x4 (C,2 B,,2) | x8 | B,4 x4 | x8 | x8 | x4 C,4 | x8 | B,2 x6 | x8 | x8 | x8 | %14
 x4 C,4 | x8 |] %16

